static/logos/segment-wordmark-color.svg

<svg width="100" height="22" viewBox="0 0 100 22" fill="none" xmlns="http://www.w3.org/2000/svg">
<g clip-path="url(#clip0_1_1173)">
<path fill-rule="evenodd" clip-rule="evenodd" d="M37.2041 10.4406L35.386 10.0462C34.4763 9.84893 33.9754 9.28782 33.9754 8.4656C33.9754 7.4206 34.9032 6.63226 36.1338 6.63226C37.8366 6.63226 38.3393 7.88504 38.4532 8.26949C38.4893 8.39726 38.5782 8.5056 38.6977 8.56532C38.8143 8.62504 38.9449 8.63393 39.0699 8.59032L40.0282 8.25226C40.1432 8.2114 40.2385 8.12815 40.2941 8.01954C40.3499 7.91093 40.3621 7.78513 40.3282 7.66782C40.081 6.79838 39.1727 4.77615 36.0921 4.77615C33.8116 4.77615 31.8866 6.5206 31.8866 8.58588C31.8866 10.3609 33.0513 11.672 35.0032 12.097L36.7366 12.4748C37.7799 12.6942 38.4032 13.3303 38.4032 14.1748C38.4032 15.2525 37.5171 15.922 36.0893 15.922C34.4116 15.922 33.6032 14.822 33.406 13.7914C33.3935 13.725 33.3671 13.6619 33.3285 13.6065C33.2896 13.551 33.2396 13.5044 33.1816 13.4698C33.1235 13.4351 33.0588 13.4132 32.9918 13.4054C32.9246 13.3977 32.8566 13.4042 32.7921 13.4248L31.7393 13.7609C31.6288 13.7946 31.5343 13.8679 31.4743 13.9668C31.4143 14.0657 31.3929 14.1833 31.4143 14.297C31.7421 16.0053 33.1457 17.8275 36.1088 17.8275C38.6127 17.8275 40.501 16.197 40.501 14.0359C40.501 12.2109 39.2966 10.8998 37.1954 10.4359L37.2041 10.4406ZM47.9599 12.1025C47.9654 12.1387 47.9488 12.1664 47.9377 12.1775C47.9285 12.1889 47.9168 12.1981 47.9035 12.2043C47.8904 12.2106 47.876 12.2138 47.8613 12.2137H44.0002C43.9849 12.2137 43.9696 12.2102 43.9557 12.2034C43.9421 12.1967 43.9299 12.1869 43.9204 12.1748C43.9116 12.1646 43.9055 12.1525 43.9018 12.1395C43.8985 12.1265 43.8982 12.1129 43.901 12.0998C44.0774 11.2948 44.7677 10.4831 45.9121 10.4831C47.0363 10.4831 47.801 11.0859 47.9579 12.0978L47.9599 12.1025ZM45.8971 8.68032C43.8638 8.68032 41.761 10.3803 41.761 13.2275C41.761 14.5998 42.211 15.772 43.0638 16.6137C43.8538 17.3942 44.9332 17.8248 46.1027 17.8248C47.8443 17.8248 49.2555 16.9148 49.8777 15.3914C49.9277 15.2664 49.9249 15.1275 49.871 15.0053C49.8443 14.946 49.806 14.8928 49.758 14.849C49.7099 14.8053 49.6532 14.7718 49.5918 14.7509L48.7418 14.4564C48.628 14.4173 48.5038 14.4226 48.3938 14.4712C48.2838 14.5197 48.196 14.608 48.1482 14.7184C47.7816 15.5823 47.0927 16.0184 46.101 16.0184C44.901 16.0184 43.9871 15.21 43.8288 14.0064C43.8268 13.993 43.828 13.9792 43.8318 13.9662C43.836 13.9532 43.8429 13.9413 43.8524 13.9314C43.8635 13.9175 43.8885 13.8953 43.9274 13.8953H49.5618C49.8146 13.8953 50.0257 13.6981 50.0396 13.4464C50.0452 13.3659 50.0479 13.277 50.0479 13.1892C50.0479 10.4059 48.4563 8.67726 45.8952 8.67726L45.8971 8.68032ZM55.4916 15.4359C54.1388 15.4359 53.2971 14.497 53.2971 12.9859C53.2971 11.497 54.1582 10.5348 55.4916 10.5348C56.7832 10.5348 57.651 11.5181 57.651 12.9848C57.651 14.4498 56.7827 15.4348 55.4913 15.4348L55.4916 15.4359ZM59.0971 8.93588H58.0777C57.8138 8.93588 57.5985 9.1506 57.5985 9.42754C57.5985 9.44713 57.5927 9.46626 57.5818 9.48254C57.5707 9.49885 57.5555 9.5116 57.5374 9.51921C57.518 9.52754 57.4791 9.53865 57.4441 9.50532C56.9191 9.02532 56.1802 8.78171 55.2496 8.78171C52.9432 8.78171 51.2691 10.5512 51.2691 12.9873C51.2691 15.4128 52.9432 17.1734 55.2496 17.1734C56.1024 17.1734 56.8746 16.8934 57.4246 16.385C57.4607 16.3517 57.4996 16.36 57.5191 16.3684C57.5329 16.3739 57.5802 16.3989 57.5802 16.46V16.81C57.5802 18.5045 56.8385 19.2948 55.2496 19.2948C54.2413 19.2948 53.4496 18.6698 53.2357 17.7037C53.2079 17.5787 53.133 17.4731 53.0246 17.4056C52.9163 17.3381 52.7857 17.3167 52.6607 17.3445L51.6596 17.575C51.5366 17.6043 51.4302 17.6807 51.363 17.7877C51.2957 17.8947 51.2732 18.0238 51.3002 18.1473C51.6585 19.9028 53.2463 21.0834 55.2474 21.0834C56.7391 21.0834 57.8752 20.6292 58.6252 19.7334C59.2446 18.9928 59.5724 17.9648 59.5724 16.7603V9.42226C59.5724 9.15838 59.3585 8.94449 59.0946 8.94449L59.0971 8.93588ZM71.2166 8.69588C70.0888 8.69588 69.1713 9.12143 68.5627 9.92921C68.5524 9.94415 68.5385 9.95621 68.5221 9.96418C68.5057 9.97215 68.4877 9.97582 68.4696 9.97476C68.4563 9.97493 68.443 9.97154 68.4313 9.96496C68.4196 9.95838 68.4099 9.94882 68.4029 9.93726C67.8927 9.14838 67.0118 8.6956 65.9863 8.6956C65.1705 8.6956 64.3863 8.98226 63.8341 9.4831C63.8207 9.49701 63.8035 9.5064 63.7843 9.50988C63.7655 9.51338 63.746 9.51079 63.7285 9.50254C63.7116 9.49554 63.6971 9.48346 63.6871 9.46796C63.6771 9.45246 63.6721 9.43426 63.673 9.41588C63.673 9.15199 63.458 8.9381 63.1941 8.9381H62.2257C61.9618 8.9381 61.7479 9.15199 61.7479 9.41588V17.0909C61.7479 17.3548 61.963 17.5692 62.2268 17.5692H63.2463C63.5102 17.5692 63.7241 17.3537 63.7241 17.0898V12.4112C63.7241 11.2742 64.4185 10.51 65.4546 10.51C66.8102 10.51 67.0129 11.5731 67.0129 12.2064V17.0981C67.0129 17.362 67.2268 17.5759 67.4907 17.5759H68.5277C68.7916 17.5759 69.0055 17.3609 69.0055 17.097V12.3945C69.0055 11.2845 69.711 10.5095 70.7193 10.5095C72.0757 10.5095 72.2777 11.5734 72.2777 12.2067V17.0984C72.2777 17.3623 72.4916 17.5762 72.7554 17.5762H73.7749C74.0388 17.5762 74.2527 17.3612 74.2527 17.0973V12.0334C74.2527 9.73338 72.7277 8.70476 71.2166 8.70476V8.69588ZM78.1082 12.2203C78.093 12.2203 78.078 12.2168 78.0641 12.2102C78.0502 12.2035 78.0382 12.1939 78.0285 12.182C78.0202 12.1718 78.0141 12.1599 78.0107 12.1472C78.0077 12.1343 78.0074 12.121 78.0102 12.1081C78.1868 11.3025 78.8768 10.4914 80.0224 10.4914C81.1463 10.4914 81.9113 11.0942 82.0679 12.1053C82.0735 12.1414 82.056 12.1692 82.0457 12.1803C82.0357 12.1907 82.0241 12.1989 82.011 12.2047C81.9977 12.2104 81.9835 12.2134 81.9693 12.2137H78.1082V12.2203ZM80.0054 8.68699C77.9721 8.68699 75.8693 10.3881 75.8693 13.2342C75.8693 14.6081 76.3193 15.7795 77.171 16.622C77.9599 17.4025 79.0377 17.8303 80.2099 17.8303C81.9488 17.8303 83.3599 16.9192 83.9849 15.3942C84.0349 15.2692 84.0321 15.1303 83.9766 15.0081C83.921 14.8859 83.821 14.797 83.696 14.7525L82.846 14.4587C82.6099 14.3773 82.3488 14.492 82.2521 14.7203C81.8855 15.582 81.1966 16.0203 80.2049 16.0203C79.0049 16.0203 78.091 15.2103 77.9327 14.0064C77.9304 13.9928 77.9316 13.9789 77.9352 13.9656C77.9391 13.9524 77.9457 13.9402 77.9549 13.9298C77.966 13.9159 77.991 13.895 78.0299 13.895H83.666C83.9188 13.895 84.1291 13.6978 84.1438 13.4459C84.1485 13.3653 84.1521 13.2764 84.1521 13.1875C84.1521 10.4042 82.5604 8.67365 79.9993 8.67365L80.0054 8.68699ZM90.2193 8.70449C89.3568 8.70449 88.6007 8.99838 88.0332 9.55449C88.0202 9.5676 88.0035 9.57646 87.9854 9.57993C87.9671 9.5834 87.9485 9.58132 87.9316 9.57393C87.9141 9.56629 87.8993 9.55371 87.8888 9.53771C87.8785 9.52171 87.873 9.50299 87.8732 9.48393V9.42282C87.8732 9.15893 87.6582 8.94504 87.3943 8.94504H86.3943C86.1304 8.94504 85.9154 9.15893 85.9154 9.42282V17.0964C85.9154 17.3603 86.1293 17.575 86.3932 17.575H87.4293C87.6932 17.575 87.9085 17.3598 87.9085 17.0959V12.6162C87.9085 11.6139 88.3627 10.5428 89.6391 10.5428C90.7863 10.5428 91.3685 11.177 91.3685 12.4275V17.0942C91.3685 17.3581 91.5824 17.572 91.8463 17.572H92.8824C93.1463 17.572 93.3607 17.3553 93.3607 17.0914V12.1528C93.3607 10.025 92.1557 8.70282 90.2191 8.70282L90.2193 8.70449ZM98.1885 10.7828H99.3968C99.6607 10.7828 99.8746 10.5675 99.8746 10.3039V9.42226C99.8746 9.15838 99.6607 8.94449 99.3968 8.94449H98.1885C98.1757 8.94449 98.1632 8.94196 98.1513 8.9371C98.1396 8.93221 98.1288 8.92504 98.1199 8.91601C98.1107 8.90699 98.1035 8.89626 98.0988 8.88446C98.0938 8.87268 98.0913 8.86004 98.0913 8.84726V6.8156C98.0913 6.55171 97.8757 6.33726 97.6121 6.33726H96.7121C96.4482 6.33726 96.2343 6.55171 96.2343 6.8156V7.8656C96.2343 8.35726 96.046 8.94421 95.1543 8.94421H95.0007C94.7368 8.94421 94.5229 9.1581 94.5229 9.42199V10.3025C94.5229 10.5664 94.7377 10.7803 95.0007 10.7803H96.0035C96.0577 10.7803 96.1007 10.822 96.1007 10.8775V15.1192C96.1007 16.6859 97.0549 17.6581 98.5896 17.6581C99.0174 17.6581 99.3502 17.597 99.5104 17.5609C99.7271 17.5109 99.8793 17.3192 99.8793 17.0942V16.2778C99.8793 16.2107 99.8652 16.1443 99.8377 16.083C99.8102 16.0216 99.7702 15.9668 99.7202 15.9219C99.6704 15.877 99.6116 15.8432 99.5477 15.8225C99.4838 15.8018 99.416 15.7948 99.3493 15.802C99.241 15.8131 99.136 15.8195 99.0538 15.8195C98.3566 15.8195 98.0954 15.5639 98.0954 14.8778V10.8778C98.0954 10.8245 98.1399 10.7812 98.1927 10.7812" fill="#43AF79"/>
<path fill-rule="evenodd" clip-rule="evenodd" d="M14.4239 14.8603H1.11111C0.497222 14.8603 0 14.3631 0 13.7492C0 13.1353 0.497222 12.6381 1.11111 12.6381H14.4239C15.0378 12.6381 15.535 13.1353 15.535 13.7492C15.535 14.3631 15.0378 14.8603 14.4239 14.8603Z" fill="#93C8A2"/>
<path fill-rule="evenodd" clip-rule="evenodd" d="M11.5671 21.6667C10.4827 21.6667 9.41157 21.5055 8.38379 21.1869C8.10235 21.0997 7.86707 20.9043 7.72971 20.6436C7.59235 20.383 7.56412 20.0784 7.65129 19.7969C7.83296 19.208 8.45685 18.8803 9.04157 19.0636C9.85601 19.3164 10.7055 19.4442 11.5671 19.4442C15.3374 19.4442 18.611 17.0247 19.7135 13.4219C19.7562 13.2824 19.8259 13.1527 19.9188 13.0402C20.0116 12.9277 20.1258 12.8346 20.2546 12.7662C20.3835 12.6978 20.5246 12.6555 20.6698 12.6417C20.815 12.628 20.9616 12.6429 21.101 12.6858C21.6877 12.8636 22.0177 13.4858 21.8382 14.0719C20.4482 18.6139 16.3205 21.6667 11.5671 21.6667Z" fill="#43AF79"/>
<path fill-rule="evenodd" clip-rule="evenodd" d="M22.0249 9.21526H8.71267C8.09878 9.21526 7.60156 8.71804 7.60156 8.10415C7.60156 7.49026 8.09878 6.99304 8.71267 6.99304H22.0249C22.6388 6.99304 23.136 7.49026 23.136 8.10415C23.136 8.71804 22.6388 9.21526 22.0249 9.21526Z" fill="#93C8A2"/>
<path fill-rule="evenodd" clip-rule="evenodd" d="M2.36126 9.21559C2.18748 9.21562 2.01612 9.17487 1.86094 9.09665C1.70576 9.01842 1.5711 8.9049 1.46777 8.76517C1.36443 8.62545 1.29531 8.46342 1.26596 8.29215C1.23661 8.12087 1.24785 7.94509 1.29876 7.77892C2.68904 3.23726 6.81682 0.186707 11.5696 0.186707C12.6549 0.186707 13.726 0.347818 14.7529 0.666707C14.8923 0.70989 15.0218 0.780107 15.1341 0.873346C15.2463 0.966587 15.3391 1.08103 15.4072 1.21013C15.4752 1.33923 15.5171 1.48047 15.5305 1.62577C15.544 1.77107 15.5286 1.9176 15.4854 2.05698C15.4424 2.19645 15.3722 2.32605 15.279 2.43837C15.1858 2.55069 15.0713 2.64352 14.9422 2.71153C14.8131 2.77956 14.6718 2.82142 14.5264 2.83476C14.3811 2.84809 14.2345 2.83259 14.0952 2.7892C13.2813 2.53921 12.4313 2.41143 11.5696 2.41143C7.80015 2.41143 4.52599 4.83087 3.42349 8.43365C3.35379 8.66101 3.21307 8.86006 3.02193 9.00153C2.83079 9.14303 2.59934 9.21951 2.36154 9.21976" fill="#43AF79"/>
<path fill-rule="evenodd" clip-rule="evenodd" d="M19.2719 3.87001C19.2719 4.16471 19.1548 4.44732 18.9464 4.65571C18.7381 4.86407 18.4555 4.98113 18.1608 4.98113C17.8661 4.98113 17.5835 4.86407 17.3751 4.65571C17.1667 4.44732 17.0497 4.16471 17.0497 3.87001C17.0497 3.57535 17.1667 3.29271 17.3751 3.08435C17.5835 2.87599 17.8661 2.75891 18.1608 2.75891C18.4555 2.75891 18.7381 2.87599 18.9464 3.08435C19.1548 3.29271 19.2719 3.57535 19.2719 3.87001ZM6.0816 17.985C6.0816 18.2797 5.96454 18.5623 5.75615 18.7707C5.54779 18.9791 5.26518 19.0961 4.97049 19.0961C4.67579 19.0961 4.39318 18.9791 4.18482 18.7707C3.97643 18.5623 3.85938 18.2797 3.85938 17.985C3.85938 17.6903 3.97643 17.4077 4.18482 17.1993C4.39318 16.991 4.67579 16.8739 4.97049 16.8739C5.26518 16.8739 5.54779 16.991 5.75615 17.1993C5.96454 17.4077 6.0816 17.6903 6.0816 17.985Z" fill="#93C8A2"/>
</g>
<defs>
<clipPath id="clip0_1_1173">
<rect width="100" height="21.6667" fill="white"/>
</clipPath>
</defs>
</svg>

<svg xmlns="http://www.w3.org/2000/svg" width="290.909" height="64" fill="none" viewBox="0 0 100 22"><g fill-rule="evenodd" clip-path="url(#a)" clip-rule="evenodd"><path fill="#43AF79" d="m37.204 10.44-1.818-.394c-.91-.197-1.41-.758-1.41-1.58 0-1.045.927-1.834 2.158-1.834 1.703 0 2.205 1.253 2.32 1.637a.476.476 0 0 0 .616.321l.958-.338a.479.479 0 0 0 .3-.584c-.247-.87-1.155-2.892-4.236-2.892-2.28 0-4.205 1.745-4.205 3.81 0 1.775 1.164 3.086 3.116 3.511l1.734.378c1.043.22 1.666.855 1.666 1.7 0 1.077-.886 1.747-2.314 1.747-1.677 0-2.486-1.1-2.683-2.13a.478.478 0 0 0-.614-.367l-1.053.336a.47.47 0 0 0-.325.536c.328 1.708 1.732 3.53 4.695 3.53 2.504 0 4.392-1.63 4.392-3.791 0-1.825-1.204-3.136-3.306-3.6l.01.005Zm10.756 1.662a.09.09 0 0 1-.022.075.096.096 0 0 1-.077.037h-3.86a.102.102 0 0 1-.08-.04.087.087 0 0 1-.02-.075c.176-.804.867-1.616 2.011-1.616 1.124 0 1.889.603 2.046 1.615l.002.004ZM45.897 8.68c-2.033 0-4.136 1.7-4.136 4.547 0 1.373.45 2.545 1.303 3.387.79.78 1.87 1.21 3.039 1.21 1.741 0 3.152-.91 3.775-2.433a.498.498 0 0 0-.007-.386.476.476 0 0 0-.28-.254l-.85-.295a.477.477 0 0 0-.593.262c-.366.864-1.055 1.3-2.047 1.3-1.2 0-2.114-.808-2.272-2.012a.09.09 0 0 1 .024-.075.096.096 0 0 1 .074-.036h5.635a.478.478 0 0 0 .478-.449c.005-.08.008-.169.008-.257 0-2.783-1.592-4.512-4.153-4.512l.002.003Zm9.595 6.756c-1.353 0-2.195-.939-2.195-2.45 0-1.489.861-2.451 2.195-2.451 1.291 0 2.159.983 2.159 2.45 0 1.465-.868 2.45-2.16 2.45Zm3.605-6.5h-1.02a.483.483 0 0 0-.478.492.099.099 0 0 1-.062.091c-.019.009-.058.02-.093-.014-.525-.48-1.264-.723-2.194-.723-2.307 0-3.98 1.77-3.98 4.205 0 2.426 1.673 4.186 3.98 4.186.852 0 1.625-.28 2.175-.788a.085.085 0 0 1 .094-.017c.014.006.061.03.061.092v.35c0 1.695-.741 2.485-2.33 2.485-1.009 0-1.8-.625-2.014-1.591a.468.468 0 0 0-.211-.298.487.487 0 0 0-.364-.061l-1.001.23a.482.482 0 0 0-.36.572c.358 1.756 1.946 2.936 3.947 2.936 1.492 0 2.628-.454 3.378-1.35.62-.74.947-1.768.947-2.973V9.422a.478.478 0 0 0-.477-.478l.002-.008Zm12.12-.24c-1.128 0-2.046.425-2.654 1.233a.105.105 0 0 1-.093.046.076.076 0 0 1-.067-.038c-.51-.789-1.391-1.241-2.417-1.241-.816 0-1.6.286-2.152.787a.092.092 0 0 1-.106.02.09.09 0 0 1-.055-.087.479.479 0 0 0-.479-.478h-.968a.478.478 0 0 0-.478.478v7.675a.48.48 0 0 0 .479.478h1.02a.48.48 0 0 0 .477-.48v-4.678c0-1.137.694-1.901 1.73-1.901 1.356 0 1.559 1.063 1.559 1.696v4.892c0 .264.214.478.478.478h1.037a.479.479 0 0 0 .477-.479v-4.703c0-1.11.706-1.885 1.714-1.885 1.357 0 1.559 1.064 1.559 1.698v4.891c0 .264.214.478.477.478h1.02a.479.479 0 0 0 .478-.479v-5.064c0-2.3-1.525-3.328-3.036-3.328v-.01Zm6.891 3.524a.103.103 0 0 1-.08-.038.094.094 0 0 1-.017-.035.089.089 0 0 1 0-.039c.176-.806.866-1.617 2.011-1.617 1.124 0 1.89.603 2.046 1.614a.093.093 0 0 1-.057.1.112.112 0 0 1-.042.009h-3.86v.006Zm1.897-3.533c-2.033 0-4.136 1.701-4.136 4.547 0 1.374.45 2.546 1.302 3.388.789.78 1.867 1.208 3.039 1.208 1.739 0 3.15-.91 3.775-2.436a.49.49 0 0 0-.008-.386.48.48 0 0 0-.281-.255l-.85-.294a.477.477 0 0 0-.594.261c-.367.862-1.055 1.3-2.047 1.3-1.2 0-2.114-.81-2.272-2.014a.095.095 0 0 1 .022-.076.096.096 0 0 1 .075-.035h5.636a.478.478 0 0 0 .478-.45c.004-.08.008-.169.008-.258 0-2.783-1.592-4.513-4.153-4.513l.006.013Zm10.214.017c-.862 0-1.618.294-2.186.85a.092.092 0 0 1-.101.02.098.098 0 0 1-.059-.09v-.061a.479.479 0 0 0-.479-.478h-1a.479.479 0 0 0-.479.478v7.673c0 .264.214.479.478.479h1.036a.48.48 0 0 0 .48-.48v-4.479c0-1.002.454-2.073 1.73-2.073 1.147 0 1.73.634 1.73 1.885v4.666c0 .264.213.478.477.478h1.036a.48.48 0 0 0 .479-.48v-4.94c0-2.127-1.205-3.45-3.142-3.45v.002Zm7.97 2.079h1.208a.479.479 0 0 0 .478-.48v-.88a.478.478 0 0 0-.478-.479h-1.209a.098.098 0 0 1-.09-.06.095.095 0 0 1-.007-.037V6.816a.48.48 0 0 0-.479-.479h-.9a.478.478 0 0 0-.478.479v1.05c0 .491-.188 1.078-1.08 1.078h-.153a.478.478 0 0 0-.478.478v.88c0 .264.215.478.478.478h1.002c.055 0 .098.042.098.098v4.241c0 1.567.954 2.54 2.489 2.54.427 0 .76-.062.92-.098a.476.476 0 0 0 .37-.467v-.816a.476.476 0 0 0-.332-.455.478.478 0 0 0-.199-.021 3.05 3.05 0 0 1-.295.018c-.697 0-.959-.256-.959-.942v-4c0-.053.045-.097.098-.097"/><path fill="#93C8A2" d="M14.424 14.86H1.11a1.11 1.11 0 1 1 0-2.222h13.313a1.11 1.11 0 1 1 0 2.222Z"/><path fill="#43AF79" d="M11.567 21.667a10.74 10.74 0 0 1-3.183-.48 1.11 1.11 0 0 1 .658-2.123c.814.252 1.664.38 2.525.38 3.77 0 7.044-2.42 8.146-6.022a1.11 1.11 0 0 1 1.388-.736c.587.178.917.8.737 1.386a10.684 10.684 0 0 1-10.27 7.595Z"/><path fill="#93C8A2" d="M22.025 9.215H8.713a1.11 1.11 0 1 1 0-2.222h13.312a1.11 1.11 0 1 1 0 2.222Z"/><path fill="#43AF79" d="M2.361 9.216A1.111 1.111 0 0 1 1.3 7.779 10.682 10.682 0 0 1 11.569.187c1.086 0 2.157.16 3.184.48a1.112 1.112 0 1 1-.658 2.122 8.595 8.595 0 0 0-2.525-.378 8.472 8.472 0 0 0-8.147 6.023 1.112 1.112 0 0 1-1.061.786"/><path fill="#93C8A2" d="M19.272 3.87a1.111 1.111 0 1 1-2.222 0 1.111 1.111 0 0 1 2.222 0ZM6.082 17.985a1.111 1.111 0 1 1-2.223 0 1.111 1.111 0 0 1 2.223 0Z"/></g><defs><clipPath id="a"><path fill="#fff" d="M0 0h100v21.667H0z"/></clipPath></defs></svg>
